src/main/resources/icons/AllIcons/nodes/configFolder.svg

<!-- Copyright 2000-2021 JetBrains s.r.o. Use of this source code is governed by the Apache 2.0 license that can be found in the LICENSE file. -->
<svg xmlns="http://www.w3.org/2000/svg" width="16" height="16" viewBox="0 0 16 16">
  <g fill="none" fill-rule="evenodd">
    <path fill="#9AA7B0" fill-opacity=".8" d="M15,7.99963381 C14.1643395,7.37194482 13.1256059,7 12,7 C9.23857625,7 7,9.23857625 7,12 C7,12.3424658 7.03443026,12.6768901 7.10001812,13 L1,13 L1,2.05128 C1,2.02295884 1.02295884,2 1.05128,2 L4.97888,2 C5.61570121,2.03457993 6.22161957,2.28559443 6.69633,2.71149 L7.98457,4 L15,4 L15,7.99963381 Z"/>
    <path fill="#40B6E0" d="M14.9038963,12.5790317 L15.8135595,13.2316899 C15.6384896,13.7731744 15.3510977,14.2641457 14.9788518,14.6771359 L13.9588158,14.2169755 C13.668497,14.4727984 13.3275303,14.6724899 12.9528891,14.7990766 L12.8417488,15.9127236 C12.5724461,15.9699115 12.2931267,16 12.0067798,16 C11.7204328,16 11.4411134,15.9699115 11.1718107,15.9127236 L11.0606704,14.7990765 C10.6860293,14.6724898 10.3450626,14.4727983 10.0547438,14.2169754 L9.03470769,14.6771359 C8.66246178,14.2641457 8.37506991,13.7731744 8.2,13.2316899 L9.10966347,12.5790315 C9.07244924,12.3917905 9.05293363,12.1981744 9.05293363,12.0000001 C9.05293363,11.8018258 9.07244926,11.6082096 9.10966352,11.4209686 L8.2,10.7683101 C8.37506991,10.2268256 8.66246178,9.73585432 9.03470769,9.32286405 L10.0547441,9.78302467 C10.3450628,9.52720191 10.6860293,9.32751047 11.0606704,9.20092378 L11.1718107,8.08727644 C11.4411134,8.03008853 11.7204328,8 12.0067798,8 C12.2931267,8 12.5724461,8.03008853 12.8417488,8.08727644 L12.9528891,9.20092368 C13.3275302,9.32751034 13.6684969,9.5272018 13.9588156,9.78302459 L14.9788518,9.32286405 C15.3510977,9.73585432 15.6384896,10.2268256 15.8135595,10.7683101 L14.9038962,11.4209684 C14.9411105,11.6082095 14.9606262,11.8018258 14.9606262,12.0000001 C14.9606262,12.1981744 14.9411105,12.3917906 14.9038963,12.5790317 Z M12.0067796,13.4156281 C12.7884749,13.4156281 13.4221642,12.7818843 13.4221642,12.0001217 C13.4221642,11.2183591 12.7884749,10.5846153 12.0067796,10.5846153 C11.2250843,10.5846153 10.591395,11.2183591 10.591395,12.0001217 C10.591395,12.7818843 11.2250843,13.4156281 12.0067796,13.4156281 Z"/>
  </g>
</svg>

<svg xmlns="http://www.w3.org/2000/svg" width="16" height="16" viewBox="0 0 16 16"><rect id="frame" width="16" height="16" fill="none"/><g fill="none" fill-rule="evenodd"><path fill="#9AA7B0" fill-opacity=".8" d="M15 8a5 5 0 0 0-7.9 5H1V2.051C1 2.023 1.023 2 1.051 2H4.98a2.8 2.8 0 0 1 1.717.711L7.985 4H15v4z"/><path fill="#40B6E0" d="M14.904 12.579l.91.653a3.996 3.996 0 0 1-.835 1.445l-1.02-.46a2.95 2.95 0 0 1-1.006.582l-.111 1.114a4.016 4.016 0 0 1-1.67 0l-.111-1.114a2.95 2.95 0 0 1-1.006-.582l-1.02.46a3.996 3.996 0 0 1-.835-1.445l.91-.653a2.968 2.968 0 0 1 0-1.158l-.91-.653a3.996 3.996 0 0 1 .835-1.445l1.02.46a2.95 2.95 0 0 1 1.006-.582l.11-1.114a4.016 4.016 0 0 1 1.67 0l.112 1.114a2.95 2.95 0 0 1 1.006.582l1.02-.46c.372.413.66.904.835 1.445l-.91.653a2.968 2.968 0 0 1 0 1.158zm-2.897.837a1.415 1.415 0 1 0 0-2.831 1.415 1.415 0 0 0 0 2.83z"/></g></svg>
